flaticon/army-badges/medal-1.svg

<svg xmlns="http://www.w3.org/2000/svg" width="32" height="32" viewBox="0 0 24 24">
    <path d="M 11.980469 13.578125 C 14.179688 13.578125 15.980469 11.78125 15.980469 9.578125 C 15.980469 7.378906 14.179688 5.578125 11.980469 5.578125 C 9.78125 5.578125 7.980469 7.378906 7.980469 9.578125 C 7.980469 11.78125 9.78125 13.578125 11.980469 13.578125 Z M 11.980469 6.378906 C 13.738281 6.378906 15.179688 7.820312 15.179688 9.578125 C 15.179688 11.339844 13.738281 12.78125 11.980469 12.78125 C 10.21875 12.78125 8.78125 11.339844 8.78125 9.578125 C 8.78125 7.820312 10.21875 6.378906 11.980469 6.378906 Z M 11.980469 6.378906"/>
    <path d="M 9.980469 9.980469 C 10.21875 9.980469 10.378906 9.820312 10.378906 9.578125 C 10.378906 8.699219 11.101562 7.980469 11.980469 7.980469 C 12.21875 7.980469 12.378906 7.820312 12.378906 7.578125 C 12.378906 7.339844 12.21875 7.179688 11.980469 7.179688 C 10.660156 7.179688 9.578125 8.261719 9.578125 9.582031 C 9.578125 9.820312 9.738281 9.980469 9.980469 9.980469 Z M 9.980469 9.980469"/>
    <path d="M 23.941406 5.78125 C 23.859375 5.660156 23.738281 5.578125 23.578125 5.578125 L 16.457031 5.578125 C 15.359375 4.351562 13.761719 3.578125 11.980469 3.578125 C 10.199219 3.578125 8.601562 4.351562 7.503906 5.578125 L 0.378906 5.578125 C 0.21875 5.578125 0.101562 5.660156 0.0585938 5.820312 C -0.0195312 5.941406 -0.0195312 6.101562 0.0585938 6.21875 L 3.160156 10.871094 C 3.164062 10.9375 3.183594 11.003906 3.21875 11.058594 C 3.867188 12.03125 4.839844 12.777344 5.933594 13.207031 L 4.460938 18.140625 C 4.378906 18.460938 4.5 18.820312 4.78125 19.019531 C 5.101562 19.21875 5.460938 19.21875 5.738281 19.019531 L 7.578125 17.699219 C 7.699219 17.621094 7.859375 17.578125 7.980469 17.621094 C 8.101562 17.660156 8.21875 17.78125 8.261719 17.898438 L 9.019531 19.859375 C 9.140625 20.21875 9.460938 20.421875 9.820312 20.421875 C 9.859375 20.421875 9.859375 20.421875 9.898438 20.421875 C 10.300781 20.378906 10.578125 20.140625 10.699219 19.78125 L 11.9375 15.578125 C 11.953125 15.578125 11.964844 15.578125 11.980469 15.578125 C 12.007812 15.578125 12.035156 15.578125 12.0625 15.578125 L 13.300781 19.78125 C 13.421875 20.140625 13.738281 20.421875 14.101562 20.421875 L 14.140625 20.421875 C 14.5 20.421875 14.78125 20.179688 14.941406 19.859375 L 15.699219 17.898438 C 15.738281 17.738281 15.859375 17.660156 15.980469 17.621094 C 16.140625 17.578125 16.261719 17.621094 16.378906 17.699219 L 18.21875 19.019531 C 18.539062 19.21875 18.898438 19.21875 19.179688 19.019531 C 19.460938 18.820312 19.578125 18.460938 19.5 18.140625 L 18.03125 13.128906 C 19.148438 12.699219 20.089844 11.953125 20.738281 10.980469 L 22.339844 8.578125 L 23.941406 6.179688 C 24.019531 6.058594 24.019531 5.898438 23.941406 5.78125 Z M 11.980469 4.378906 C 14.679688 4.378906 16.882812 6.449219 17.152344 9.046875 C 17.15625 9.066406 17.15625 9.085938 17.15625 9.105469 C 17.160156 9.125 17.160156 9.148438 17.164062 9.167969 C 17.175781 9.308594 17.179688 9.449219 17.179688 9.578125 C 17.179688 9.625 17.179688 9.671875 17.179688 9.714844 C 17.171875 10.019531 17.136719 10.316406 17.078125 10.605469 C 17.070312 10.621094 17.066406 10.640625 17.058594 10.660156 L 16.78125 11.578125 C 16.78125 11.582031 16.78125 11.585938 16.78125 11.589844 C 15.996094 13.464844 14.148438 14.78125 11.980469 14.78125 C 11.6875 14.78125 11.40625 14.757812 11.128906 14.710938 C 9.359375 14.390625 7.871094 13.214844 7.179688 11.539062 C 7.171875 11.523438 7.164062 11.511719 7.15625 11.5 L 6.898438 10.660156 C 6.894531 10.652344 6.890625 10.644531 6.886719 10.636719 C 6.882812 10.625 6.882812 10.617188 6.882812 10.605469 C 6.875 10.578125 6.871094 10.550781 6.863281 10.523438 C 6.863281 10.503906 6.859375 10.488281 6.855469 10.46875 C 6.851562 10.445312 6.847656 10.421875 6.84375 10.398438 C 6.839844 10.367188 6.835938 10.332031 6.828125 10.300781 C 6.828125 10.292969 6.828125 10.285156 6.828125 10.277344 C 6.796875 10.042969 6.78125 9.804688 6.78125 9.578125 C 6.78125 9.246094 6.816406 8.914062 6.882812 8.550781 C 6.890625 8.535156 6.894531 8.515625 6.898438 8.5 C 7.058594 7.660156 7.460938 6.898438 7.980469 6.261719 C 8.007812 6.230469 8.035156 6.199219 8.054688 6.164062 C 9.003906 5.070312 10.410156 4.378906 11.980469 4.378906 Z M 6.898438 6.378906 C 6.578125 6.859375 6.339844 7.421875 6.179688 7.980469 L 2.179688 7.980469 L 1.140625 6.378906 Z M 6.019531 8.78125 C 5.980469 9.058594 5.980469 9.300781 5.980469 9.578125 C 5.980469 9.859375 5.980469 10.140625 6.019531 10.378906 L 3.78125 10.378906 L 2.738281 8.78125 Z M 4.421875 11.179688 L 6.195312 11.179688 C 6.246094 11.359375 6.300781 11.535156 6.367188 11.707031 L 6.179688 12.378906 C 5.5 12.140625 4.898438 11.699219 4.421875 11.179688 Z M 9.898438 19.578125 C 9.859375 19.578125 9.859375 19.621094 9.820312 19.621094 C 9.738281 19.621094 9.738281 19.578125 9.738281 19.578125 L 8.980469 17.621094 C 8.859375 17.21875 8.539062 16.980469 8.179688 16.859375 C 8.058594 16.820312 7.941406 16.820312 7.820312 16.820312 C 7.578125 16.820312 7.339844 16.898438 7.101562 17.058594 L 5.261719 18.378906 L 6.8125 13.082031 C 6.816406 13.074219 6.816406 13.066406 6.820312 13.058594 L 6.902344 12.78125 C 7.820312 14.261719 9.378906 15.261719 11.101562 15.539062 Z M 16.859375 17.101562 C 16.539062 16.859375 16.140625 16.78125 15.78125 16.898438 C 15.421875 16.980469 15.140625 17.261719 14.980469 17.621094 L 14.21875 19.578125 C 14.21875 19.578125 14.179688 19.621094 14.140625 19.621094 C 14.058594 19.621094 14.058594 19.578125 14.058594 19.578125 L 12.859375 15.539062 C 14.621094 15.261719 16.140625 14.261719 17.058594 12.820312 L 18.699219 18.421875 Z M 17.820312 12.402344 L 17.605469 11.671875 C 17.660156 11.523438 17.710938 11.375 17.753906 11.21875 L 19.539062 11.21875 C 19.070312 11.730469 18.484375 12.125 17.820312 12.402344 Z M 20.179688 10.378906 L 17.941406 10.378906 C 17.980469 10.140625 17.980469 9.859375 17.980469 9.578125 C 17.980469 9.300781 17.980469 9.058594 17.941406 8.78125 L 21.261719 8.78125 Z M 21.78125 7.980469 L 17.78125 7.980469 C 17.671875 7.605469 17.53125 7.25 17.351562 6.902344 C 17.269531 6.734375 17.175781 6.566406 17.078125 6.410156 C 17.070312 6.398438 17.066406 6.390625 17.058594 6.378906 L 22.859375 6.378906 Z M 21.78125 7.980469"/>
</svg>

<svg xmlns="http://www.w3.org/2000/svg" width="32" height="32" viewBox="0 0 24 24">
    <path d="M11.98 13.578c2.2 0 4-1.797 4-4 0-2.2-1.8-4-4-4-2.199 0-4 1.8-4 4 0 2.203 1.801 4 4 4zm0-7.2a3.21 3.21 0 0 1 3.2 3.2 3.212 3.212 0 0 1-3.2 3.203 3.21 3.21 0 0 1-3.199-3.203c0-1.758 1.438-3.2 3.2-3.2zm0 0"/>
    <path d="M9.98 9.98c.239 0 .399-.16.399-.402 0-.879.723-1.598 1.601-1.598.239 0 .399-.16.399-.402 0-.238-.16-.398-.399-.398a2.41 2.41 0 0 0-2.402 2.402c0 .238.16.398.402.398zm0 0"/>
    <path d="M23.941 5.781a.428.428 0 0 0-.363-.203h-7.121a5.99 5.99 0 0 0-4.477-2 5.99 5.99 0 0 0-4.476 2H.379c-.16 0-.277.082-.32.242a.368.368 0 0 0 0 .399L3.16 10.87a.392.392 0 0 0 .059.188c.648.972 1.62 1.718 2.715 2.148L4.46 18.141c-.082.32.039.68.32.879.32.199.68.199.957 0l1.84-1.32c.121-.079.281-.122.402-.079.122.04.239.16.282.277l.758 1.961c.12.36.44.563.8.563h.078a.908.908 0 0 0 .801-.64l1.239-4.204h.124l1.239 4.203c.12.36.437.64.8.64h.04c.359 0 .64-.241.8-.562l.758-1.96c.04-.16.16-.239.281-.278.16-.043.282 0 .399.078l1.84 1.32c.32.2.68.2.96 0a.84.84 0 0 0 .321-.878l-1.469-5.012a5.69 5.69 0 0 0 2.707-2.149l1.602-2.402L23.94 6.18a.368.368 0 0 0 0-.399zM11.981 4.38c2.699 0 4.902 2.07 5.171 4.668.004.02.004.039.004.058.004.02.004.043.008.063.012.14.016.281.016.41v.137a5.138 5.138 0 0 1-.102.89c-.008.016-.012.036-.02.055l-.277.918v.012a5.196 5.196 0 0 1-5.652 3.12 5.263 5.263 0 0 1-3.95-3.17c-.007-.017-.015-.028-.023-.04l-.258-.84-.011-.023c-.004-.012-.004-.02-.004-.032-.008-.027-.012-.054-.02-.082 0-.02-.004-.035-.008-.054l-.011-.07c-.004-.032-.008-.067-.016-.098v-.024a5.345 5.345 0 0 1-.047-.699c0-.332.035-.664.102-1.027.008-.016.012-.035.015-.051.16-.84.563-1.602 1.082-2.238.028-.032.055-.063.075-.098A5.182 5.182 0 0 1 11.98 4.38zm-5.083 2A5.8 5.8 0 0 0 6.18 7.98h-4L1.14 6.38zM6.02 8.78c-.04.278-.04.52-.04.797 0 .281 0 .563.04.8H3.78L2.738 8.782zM4.422 11.18h1.773c.051.18.106.355.172.527l-.187.672c-.68-.238-1.282-.68-1.758-1.2zm5.476 8.398c-.039 0-.039.043-.078.043-.082 0-.082-.043-.082-.043l-.758-1.957c-.12-.402-.44-.64-.8-.762-.121-.039-.239-.039-.36-.039-.242 0-.48.078-.718.239l-1.84 1.32 1.55-5.297c.004-.008.004-.016.008-.023l.082-.278c.918 1.48 2.477 2.48 4.2 2.758zm6.961-2.476a1.18 1.18 0 0 0-1.078-.204c-.36.082-.64.364-.8.723l-.762 1.957s-.04.043-.078.043c-.082 0-.082-.043-.082-.043l-1.2-4.039c1.762-.277 3.282-1.277 4.2-2.719l1.64 5.602zm.961-4.7l-.215-.73c.055-.149.106-.297.149-.453h1.785a4.835 4.835 0 0 1-1.719 1.183zm2.36-2.023H17.94c.04-.238.04-.52.04-.8 0-.278 0-.52-.04-.798h3.32zM21.78 7.98h-4c-.11-.375-.25-.73-.43-1.078a5.465 5.465 0 0 0-.273-.492l-.02-.031h5.801zm0 0"/>
</svg>
